src/assets/images/core2.svg

<svg width="57" height="57" viewBox="0 0 57 57" fill="none" xmlns="http://www.w3.org/2000/svg">
<circle cx="28.5" cy="28.5" r="28.5" fill="#BFAAFF"/>
<g clip-path="url(#clip0_540_16)">
<path d="M26.5362 19.7373L24.3705 21.903C23.7221 22.081 23.1203 22.4074 22.6117 22.8566L21.4843 23.861C21.052 24.2467 20.4884 24.4586 19.9078 24.4586H19.0686V29.8834C19.9332 29.9089 20.7554 30.2606 21.3699 30.8751L22.8787 32.3839L23.1753 32.6806L24.3196 33.8249C24.5824 34.0876 25.0147 34.0876 25.2775 33.8249C25.3495 33.7528 25.4046 33.6681 25.4343 33.5791C25.5529 33.2527 25.8284 33.0069 26.1675 32.9306C26.5065 32.8544 26.8625 32.9561 27.1083 33.2061L27.5661 33.6554C28.0577 34.147 28.8544 34.147 29.3418 33.6554C29.5707 33.4265 29.6936 33.1341 29.7063 32.8332C29.7233 32.4602 29.9436 32.1296 30.2827 31.9686C30.6217 31.8075 31.0159 31.8414 31.3168 32.0576C31.7152 32.3415 32.2704 32.3034 32.6264 31.9474C33.0248 31.549 33.0248 30.9048 32.6264 30.5107L29.4139 27.2982L27.8966 28.6967C26.7396 29.7648 24.9638 29.7817 23.7856 28.7349C22.4422 27.5397 22.4125 25.4546 23.7178 24.2213L26.6888 21.4156C27.85 20.3222 29.3842 19.7119 30.982 19.7119C32.5119 19.7119 33.9911 20.2756 35.1311 21.2885L36.4068 22.4243H41.4459C41.8189 22.4243 42.124 22.7295 42.124 23.1024V31.9177C42.124 32.6679 41.518 33.2739 40.7678 33.2739H39.4116C38.9115 33.2739 38.4708 33.0027 38.2377 32.5958H34.6395C34.4954 32.8798 34.3047 33.151 34.0673 33.3884C33.3426 34.1131 32.3382 34.397 31.3973 34.2402C31.2447 34.5496 31.0371 34.8378 30.7786 35.0963C29.6215 36.2533 27.8119 36.3678 26.5235 35.4396C25.4597 36.3211 23.8746 36.266 22.8787 35.2658L21.7386 34.1216L21.442 33.8249L19.9332 32.3161C19.7001 32.083 19.3949 31.9474 19.0686 31.922C19.0686 32.6679 18.4583 33.2739 17.7124 33.2739H16.3562C15.6061 33.2739 15 32.6679 15 31.9177V23.1024C15 22.7295 15.3051 22.4243 15.6781 22.4243H19.9078C19.9925 22.4243 20.073 22.3946 20.1324 22.3396L21.2555 21.3394C22.4379 20.2925 23.9594 19.7119 25.5402 19.7119H25.9768C26.1632 19.7119 26.3539 19.7204 26.5362 19.7373ZM38.0554 30.5615V24.4586H36.0211C35.7711 24.4586 35.5295 24.3654 35.3473 24.2001L33.7834 22.81C33.012 22.1234 32.0161 21.7462 30.982 21.7462C29.9055 21.7462 28.8714 22.1573 28.0873 22.8947L25.1164 25.7004C24.6799 26.1157 24.6884 26.815 25.1376 27.2134C25.5317 27.5652 26.1293 27.5567 26.515 27.2007L29.5622 24.3866C29.9733 24.0051 30.6175 24.0306 30.9989 24.4459C31.3804 24.8612 31.3549 25.5012 30.9396 25.8826L30.9057 25.9165L34.0589 29.0697C34.4827 29.4935 34.7582 30.0148 34.8811 30.5573H38.0554V30.5615ZM17.7124 31.2396C17.7124 31.0598 17.641 30.8873 17.5138 30.7601C17.3866 30.633 17.2141 30.5615 17.0343 30.5615C16.8545 30.5615 16.682 30.633 16.5548 30.7601C16.4276 30.8873 16.3562 31.0598 16.3562 31.2396C16.3562 31.4195 16.4276 31.5919 16.5548 31.7191C16.682 31.8463 16.8545 31.9177 17.0343 31.9177C17.2141 31.9177 17.3866 31.8463 17.5138 31.7191C17.641 31.5919 17.7124 31.4195 17.7124 31.2396ZM40.0897 31.9177C40.2696 31.9177 40.442 31.8463 40.5692 31.7191C40.6964 31.5919 40.7678 31.4195 40.7678 31.2396C40.7678 31.0598 40.6964 30.8873 40.5692 30.7601C40.442 30.633 40.2696 30.5615 40.0897 30.5615C39.9099 30.5615 39.7374 30.633 39.6102 30.7601C39.4831 30.8873 39.4116 31.0598 39.4116 31.2396C39.4116 31.4195 39.4831 31.5919 39.6102 31.7191C39.7374 31.8463 39.9099 31.9177 40.0897 31.9177Z" fill="white"/>
</g>
<defs>
<clipPath id="clip0_540_16">
<rect width="27.124" height="21.6992" fill="white" transform="translate(15 17)"/>
</clipPath>
</defs>
</svg>

<svg xmlns="http://www.w3.org/2000/svg" width="57" height="57" fill="none"><circle cx="28.5" cy="28.5" r="28.5" fill="#BFAAFF"/><g clip-path="url(#a)"><path fill="#fff" d="m26.536 19.737-2.166 2.166a4.4 4.4 0 0 0-1.758.954l-1.128 1.004a2.37 2.37 0 0 1-1.576.598h-.84v5.424a3.4 3.4 0 0 1 2.302.992l1.509 1.509.296.297 1.145 1.144a.68.68 0 0 0 1.114-.246 1.02 1.02 0 0 1 .733-.648c.34-.077.695.025.941.275l.458.45a1.253 1.253 0 0 0 2.14-.823c.017-.373.238-.703.577-.864a1.02 1.02 0 0 1 1.034.089 1.018 1.018 0 0 0 1.31-1.547l-3.213-3.213-1.517 1.399a3.06 3.06 0 0 1-4.179-4.475l2.97-2.806a6.254 6.254 0 0 1 8.442-.127l1.277 1.135h5.039a.68.68 0 0 1 .678.678v8.816c0 .75-.606 1.356-1.356 1.356h-1.356c-.5 0-.941-.271-1.174-.678h-3.599a3.06 3.06 0 0 1-3.242 1.644q-.23.467-.618.856a3.3 3.3 0 0 1-4.256.344 2.71 2.71 0 0 1-3.644-.174l-1.14-1.144-.297-.297-1.509-1.509a1.37 1.37 0 0 0-.864-.394c0 .746-.61 1.352-1.357 1.352h-1.356c-.75 0-1.356-.606-1.356-1.356v-8.816a.68.68 0 0 1 .678-.678h4.23a.33.33 0 0 0 .224-.084l1.124-1a6.46 6.46 0 0 1 4.284-1.628h.437c.186 0 .377.008.56.025m11.52 10.825v-6.103H36.02c-.25 0-.492-.094-.674-.259l-1.564-1.39a4.224 4.224 0 0 0-5.696.085l-2.97 2.805a1.026 1.026 0 0 0 1.399 1.5l3.046-2.813a1.014 1.014 0 0 1 1.437.059 1.014 1.014 0 0 1-.06 1.437l-.033.034 3.153 3.153c.424.424.7.945.822 1.487h3.174zm-20.344.678a.678.678 0 1 0-1.356 0 .678.678 0 0 0 1.356 0m22.378.678a.678.678 0 1 0 0-1.356.678.678 0 0 0 0 1.356"/></g><defs><clipPath id="a"><path fill="#fff" d="M15 17h27.124v21.699H15z"/></clipPath></defs></svg>
